X: 3
T: Mount Cashel's Brigade $1(R-12)
I: Mount Cashel's Brigade	R-12	A	march	Set 48
M: C
R: march
K: A
E2| "A"A2c>B ABAF| E>FED C2E2| A2c>B ABcd| "E"B2e>f edcB|
    "A"A2c>B ABAF| E>FED C2E2| "E"edcB cBAG| "A"A2A>B A2 (3Bcd|
    "A"e>fed c>dcB| A2AB cABc| "E"d>edc B>cBA| G2E>F GEFG|
    "A"A2A2 "E"GBGE| "D"F>EFG A2f2| "A"e>fec "E"dBGE| "A"A2A>B A2 |]
%%scale .5
%%text 09/13/98 

#include "RightHeader.h"
% ---------- set 49 ----------
% Kesh Jig (G) / Morrison's (E Dor) / Stan Chapman (A)
%%text Set 49
%%vskip -1cm
%%scale .6
